X: 7407
T: Clog, The
R: slide
M: 12/8
K: Dmajor
D|EFE E2D C2D E2F|GFG B2A F3 F2D|
F|A2d ded c2E E2F|GFG B2A F3 F2 [1 G|
[2 D|EFE E2D C2D E2F|GFG B2A D3 D2||

